X: 21104
T: Kangaroo, The
R: polka
M: 2/4
K: Dminor
|:d>e dc|Af ef|AF/A/ cA|G2- Gc|
d>e dc|Af ef|Ac A/G/F|D2 D2:|
|:ga/g/ fd|cf af|ba/g/ fd/f/|g2- gg|
ga/g/ fd|cf ef|Ac A/G/F|D2 D2:|

